assets/awscommandlineinterface/original.svg

<svg height="64" viewBox="0 0 64 64" width="64" xmlns="http://www.w3.org/2000/svg"><g fill="none" fill-rule="evenodd"><path d="m0 0h64v64h-64z" fill="#c925d1"/><path d="m10 11v42h26v-1.999h-24v-30.001h40v30.001h-6v1.999h8v-42zm2 8h40.001v-5.999h-40.001zm10-2h2.001v-2h-2.001zm-4 0h2v-2h-2zm-4 0h2.001v-2h-2.001zm3.886 9.827 7.683 7.684-7.683 7.683 1.414 1.414 9.098-9.097-9.098-9.098zm11.114 13.174h14v-2.001h-14z" fill="#fff"/></g></svg>

<svg xmlns="http://www.w3.org/2000/svg" width="64" height="64" viewBox="0 0 64 64"><g fill="none" fill-rule="evenodd"><path fill="#c925d1" d="M0 0h64v64H0z"/><path fill="#fff" d="M10 11v42h26v-1.999H12V21h40v30.001h-6V53h8V11zm2 8h40.001v-5.999H12zm10-2h2.001v-2H22zm-4 0h2v-2h-2zm-4 0h2.001v-2H14zm3.886 9.827 7.683 7.684-7.683 7.683 1.414 1.414 9.098-9.097-9.098-9.098zM29 40.001h14V38H29z"/></g></svg>
